svgs/duotone/calendar-image.svg

<svg xmlns="http://www.w3.org/2000/svg" viewBox="0 0 448 512"><!--! Font Awesome Pro 6.0.0-alpha3 by @fontawesome - https://fontawesome.com License - https://fontawesome.com/license (Commercial License) --><defs><style>.fa-secondary{opacity:.4}</style></defs><path class="fa-primary" d="M400 64H352V31.1C352 14.4 337.6 0 320 0C302.4 0 288 14.4 288 31.1V64H160V31.1C160 14.4 145.6 0 128 0S96 14.4 96 31.1V64H48C21.49 64 0 85.49 0 112V192h448V112C448 85.49 426.5 64 400 64zM183.8 375.4l53.5-80.26C240.3 290.7 245.3 288 250.7 288s10.35 2.672 13.31 7.125l85.33 128c3.273 4.91 3.578 11.22 .7949 16.43C347.3 444.8 341.9 448 336 448h-224c-6.021 0-11.53-3.379-14.26-8.75c-2.73-5.367-2.215-11.81 1.334-16.68l46.67-64C148.8 354.4 153.6 352 158.7 352s9.916 2.441 12.93 6.574L183.8 375.4z"/><path class="fa-secondary" d="M0 192v272C0 490.5 21.5 512 48 512h352c26.5 0 48-21.5 48-48V192H0zM128 256c17.62 0 32 14.38 32 32s-14.38 32-32 32S96 305.6 96 288S110.4 256 128 256zM350.1 439.6C347.3 444.8 341.9 448 336 448h-224c-6.021 0-11.53-3.379-14.26-8.75c-2.73-5.367-2.215-11.81 1.334-16.68l46.67-64C148.8 354.4 153.6 352 158.7 352s9.916 2.441 12.93 6.574l12.26 16.81l53.5-80.26C240.3 290.7 245.3 288 250.7 288s10.35 2.672 13.31 7.125l85.33 128C352.6 428 352.9 434.3 350.1 439.6z"/></svg>

<svg xmlns="http://www.w3.org/2000/svg" viewBox="0 0 448 512"><!-- Font Awesome Pro 6.0.0-alpha2 by @fontawesome - https://fontawesome.com License - https://fontawesome.com/license (Commercial License) --><defs><style>.fa-secondary{opacity:.4}</style></defs><path d="M0 192V464C0 490.5 21.5 512 48 512H400C426.5 512 448 490.5 448 464V192H0ZM128 256C145.625 256 160 270.375 160 288S145.625 320 128 320S96 305.625 96 288S110.375 256 128 256ZM350.107 439.551C347.322 444.754 341.9 448 336 448H112C105.979 448 100.467 444.621 97.738 439.25C95.008 433.883 95.523 427.438 99.072 422.574L145.738 358.574C148.75 354.441 153.555 352 158.666 352S168.582 354.441 171.594 358.574L183.85 375.383L237.354 295.125C240.32 290.672 245.316 288 250.666 288S261.012 290.672 263.979 295.125L349.312 423.125C352.586 428.035 352.891 434.348 350.107 439.551Z" class="fa-secondary"/><path d="M400 64H352V32C352 14.4 337.6 0 320 0H320C302.4 0 288 14.4 288 32V64H160V32C160 14.4 145.6 0 128 0H128C110.4 0 96 14.4 96 32V64H48C21.49 64 0 85.49 0 112V192H448V112C448 85.49 426.51 64 400 64ZM183.85 375.383L237.354 295.125C240.32 290.672 245.316 288 250.666 288S261.012 290.672 263.979 295.125L349.312 423.125C352.586 428.035 352.891 434.348 350.107 439.551C347.322 444.754 341.9 448 336 448H112C105.979 448 100.467 444.621 97.738 439.25C95.008 433.883 95.523 427.438 99.072 422.574L145.738 358.574C148.75 354.441 153.555 352 158.666 352S168.582 354.441 171.594 358.574L183.85 375.383Z" class="fa-primary"/></svg>
